icons/svg/sport/volleyball.svg

<?xml version="1.0" encoding="UTF-8" standalone="no"?>
<!-- Created with Inkscape (http://www.inkscape.org/) -->

<svg
   xmlns:dc="http://purl.org/dc/elements/1.1/"
   xmlns:cc="http://creativecommons.org/ns#"
   xmlns:rdf="http://www.w3.org/1999/02/22-rdf-syntax-ns#"
   xmlns:svg="http://www.w3.org/2000/svg"
   xmlns="http://www.w3.org/2000/svg"
   xmlns:sodipodi="http://sodipodi.sourceforge.net/DTD/sodipodi-0.dtd"
   xmlns:inkscape="http://www.inkscape.org/namespaces/inkscape"
   version="1.0"
   width="580"
   height="580"
   id="svg2"
   sodipodi:version="0.32"
   inkscape:version="0.48.4 r9939"
   sodipodi:docname="handball.svg"
   inkscape:output_extension="org.inkscape.output.svg.inkscape">
  <metadata
     id="metadata2975">
    <rdf:RDF>
      <cc:Work
         rdf:about="">
        <dc:format>image/svg+xml</dc:format>
        <dc:type
           rdf:resource="http://purl.org/dc/dcmitype/StillImage" />
        <cc:license
           rdf:resource="http://web.resource.org/cc/PublicDomain" />
        <dc:language>en</dc:language>
        <dc:title></dc:title>
      </cc:Work>
    </rdf:RDF>
  </metadata>
  <sodipodi:namedview
     inkscape:window-height="1004"
     inkscape:window-width="1920"
     inkscape:pageshadow="2"
     inkscape:pageopacity="0.0"
     guidetolerance="10.0"
     gridtolerance="10.0"
     objecttolerance="10.0"
     borderopacity="1.0"
     bordercolor="#666666"
     pagecolor="#ffffff"
     id="base"
     inkscape:zoom="0.46083856"
     inkscape:cx="221.59842"
     inkscape:cy="389.24922"
     inkscape:window-x="1680"
     inkscape:window-y="0"
     inkscape:current-layer="svg2"
     showgrid="false"
     inkscape:window-maximized="1" />
  <defs
     id="defs4">
    <inkscape:perspective
       sodipodi:type="inkscape:persp3d"
       inkscape:vp_x="0 : 290 : 1"
       inkscape:vp_y="0 : 1000 : 0"
       inkscape:vp_z="580 : 290 : 1"
       inkscape:persp3d-origin="290 : 193.33333 : 1"
       id="perspective10" />
  </defs>
  <g
     id="g1327">
    <path
       d="M 66.275,1.768 C 24.94,1.768 1.704,23.139 1.704,66.804 l 0,450.123 c 0,40.844 20.895,62.229 62.192,62.229 l 452.024,0 c 41.307,0 62.229,-20.315 62.229,-62.229 l 0,-450.123 c 0,-42.601 -20.922,-65.036 -63.521,-65.036 -0.004,0 -448.495,-0.143 -448.353,0 z"
       style="fill:#111111;stroke:#eeeeee;stroke-width:3.40799999"
       id="path1329"
       inkscape:connector-curvature="0" />
  </g>
  <g
     transform="matrix(21.883146,0,0,21.883146,27.402244,27.402244)"
     id="g3"
     style="fill:#ffffff;fill-opacity:1;stroke:none">
    <path
       inkscape:connector-curvature="0"
       d="m 12,4 c 4.4,0 8,3.6 8,8 0,4.4 -3.6,8 -8,8 C 7.6,20 4,16.4 4,12 4,7.6 7.6,4 12,4 M 12,2 C 6.5,2 2,6.5 2,12 2,17.5 6.5,22 12,22 17.5,22 22,17.5 22,12 22,6.5 17.5,2 12,2 l 0,0 z"
       id="path5"
       style="fill:#ffffff;fill-opacity:1;stroke:none" />
  </g>
  <path
     style="fill:none;stroke:#ffffff;stroke-width:32.82471848;stroke-linecap:round;stroke-linejoin:round;stroke-miterlimit:10;stroke-opacity:1"
     inkscape:connector-curvature="0"
     stroke-miterlimit="10"
     d="m 211.22067,114.93483 c 0,26.25977 10.94158,105.0391 80.96764,175.06517"
     id="path7" />
  <path
     style="fill:none;stroke:#ffffff;stroke-width:32.82471848;stroke-linecap:round;stroke-linejoin:round;stroke-miterlimit:10;stroke-opacity:1"
     inkscape:connector-curvature="0"
     stroke-miterlimit="10"
     d="M 178.39596,449.74697 C 200.2791,434.42877 263.74022,388.47416 290,292.18831"
     id="path9" />
  <path
     style="fill:none;stroke:#ffffff;stroke-width:32.82471848;stroke-linecap:round;stroke-linejoin:round;stroke-miterlimit:10;stroke-opacity:1"
     inkscape:connector-curvature="0"
     stroke-miterlimit="10"
     d="m 484.76001,309.69484 c -24.07147,-13.1299 -96.28585,-43.7663 -192.5717,-17.50653"
     id="path11" />
  <path
     style="fill:none;stroke:#ffffff;stroke-width:32.82471848;stroke-linecap:round;stroke-linejoin:round;stroke-miterlimit:10;stroke-opacity:1"
     inkscape:connector-curvature="0"
     stroke-miterlimit="10"
     d="m 219.97393,163.07776 c 13.12989,-6.56494 120.35731,-41.57798 229.77304,10.94156"
     id="path13" />
  <path
     style="fill:none;stroke:#ffffff;stroke-width:32.82471848;stroke-linecap:round;stroke-linejoin:round;stroke-miterlimit:10;stroke-opacity:1"
     inkscape:connector-curvature="0"
     stroke-miterlimit="10"
     d="m 246.2337,228.7272 c 13.1299,-6.56495 115.98068,-48.14293 234.14967,17.5065"
     id="path15" />
  <path
     style="fill:none;stroke:#ffffff;stroke-width:32.82471848;stroke-linecap:round;stroke-linejoin:round;stroke-miterlimit:10;stroke-opacity:1"
     inkscape:connector-curvature="0"
     stroke-miterlimit="10"
     d="M 217.78562,419.11057 C 206.84405,410.3573 112.74652,327.20134 117.12314,200.2791"
     id="path17" />
  <path
     style="fill:none;stroke:#ffffff;stroke-width:32.82471848;stroke-linecap:round;stroke-linejoin:round;stroke-miterlimit:10;stroke-opacity:1"
     inkscape:connector-curvature="0"
     stroke-miterlimit="10"
     d="M 261.55191,360.02607 C 250.61034,351.2728 160.88943,283.43506 158.70112,149.94786"
     id="path19" />
  <path
     style="fill:none;stroke:#ffffff;stroke-width:32.82471848;stroke-linecap:round;stroke-linejoin:round;stroke-miterlimit:10;stroke-opacity:1"
     inkscape:connector-curvature="0"
     stroke-miterlimit="10"
     d="m 436.61708,292.18831 c 0,10.94158 -8.75326,131.29887 -115.98068,194.76001"
     id="path21" />
  <path
     style="fill:none;stroke:#ffffff;stroke-width:32.82471848;stroke-linecap:round;stroke-linejoin:round;stroke-miterlimit:10;stroke-opacity:1"
     inkscape:connector-curvature="0"
     stroke-miterlimit="10"
     d="m 366.59101,281.24674 c 0,15.3182 -15.31821,126.92224 -131.29887,194.76"
     id="path23" />
</svg>

<svg width="580" height="580" viewBox="0 0 580 580" fill="none" xmlns="http://www.w3.org/2000/svg">
<g clip-path="url(#clip0)">
<path d="M66.275 1.76766C24.94 1.76766 1.70398 23.1387 1.70398 66.8037V516.927C1.70398 557.771 22.599 579.156 63.896 579.156H515.92C557.227 579.156 578.149 558.841 578.149 516.927V66.8037C578.149 24.2027 557.227 1.76766 514.628 1.76766C514.624 1.76766 66.133 1.62466 66.275 1.76766V1.76766Z" fill="#111111" stroke="#EEEEEE" stroke-width="3.408"/>
<path d="M290 114.935C386.286 114.935 465.065 193.715 465.065 290C465.065 386.286 386.286 465.066 290 465.066C193.714 465.066 114.935 386.286 114.935 290C114.935 193.715 193.714 114.935 290 114.935ZM290 71.1689C169.643 71.1689 71.1686 169.643 71.1686 290C71.1686 410.358 169.643 508.832 290 508.832C410.357 508.832 508.832 410.358 508.832 290C508.832 169.643 410.357 71.1689 290 71.1689Z" fill="white"/>
<path d="M211.221 114.935C211.221 141.194 222.162 219.974 292.188 290" stroke="white" stroke-width="32.8247" stroke-miterlimit="10" stroke-linecap="round" stroke-linejoin="round"/>
<path d="M178.396 449.747C200.279 434.429 263.74 388.474 290 292.188" stroke="white" stroke-width="32.8247" stroke-miterlimit="10" stroke-linecap="round" stroke-linejoin="round"/>
<path d="M484.76 309.695C460.689 296.565 388.474 265.929 292.188 292.189" stroke="white" stroke-width="32.8247" stroke-miterlimit="10" stroke-linecap="round" stroke-linejoin="round"/>
<path d="M219.974 163.078C233.104 156.513 340.331 121.5 449.747 174.019" stroke="white" stroke-width="32.8247" stroke-miterlimit="10" stroke-linecap="round" stroke-linejoin="round"/>
<path d="M246.234 228.727C259.364 222.162 362.214 180.584 480.383 246.234" stroke="white" stroke-width="32.8247" stroke-miterlimit="10" stroke-linecap="round" stroke-linejoin="round"/>
<path d="M217.786 419.111C206.844 410.357 112.747 327.202 117.123 200.279" stroke="white" stroke-width="32.8247" stroke-miterlimit="10" stroke-linecap="round" stroke-linejoin="round"/>
<path d="M261.552 360.026C250.61 351.273 160.889 283.435 158.701 149.948" stroke="white" stroke-width="32.8247" stroke-miterlimit="10" stroke-linecap="round" stroke-linejoin="round"/>
<path d="M436.617 292.188C436.617 303.13 427.864 423.487 320.636 486.948" stroke="white" stroke-width="32.8247" stroke-miterlimit="10" stroke-linecap="round" stroke-linejoin="round"/>
<path d="M366.591 281.247C366.591 296.565 351.273 408.169 235.292 476.007" stroke="white" stroke-width="32.8247" stroke-miterlimit="10" stroke-linecap="round" stroke-linejoin="round"/>
</g>
<defs>
<clipPath id="clip0">
<path d="M0 0H580V580H0V0Z" fill="white"/>
</clipPath>
</defs>
</svg>
